src/assets/icons/calendar.svg

<svg width="18" height="18" viewBox="0 0 18 18" fill="none" xmlns="http://www.w3.org/2000/svg">
<g clip-path="url(#clip0_1_698)">
<path d="M14.25 2.32581V1.5C14.25 1.08545 13.9142 0.75 13.5 0.75C13.0858 0.75 12.75 1.08545 12.75 1.5V2.25H9.75V1.5C9.75 1.08545 9.41418 0.75 9 0.75C8.58582 0.75 8.25 1.08545 8.25 1.5V2.25H5.25V1.5C5.25 1.08545 4.91418 0.75 4.5 0.75C4.08582 0.75 3.75 1.08545 3.75 1.5V2.32581C2.04053 2.6743 0.75 4.18918 0.75 6V13.5C0.75 15.5676 2.43237 17.25 4.5 17.25H13.5C15.5676 17.25 17.25 15.5676 17.25 13.5V6C17.25 4.18918 15.9595 2.6743 14.25 2.32581ZM15.75 13.5C15.75 14.7407 14.7407 15.75 13.5 15.75H4.5C3.25928 15.75 2.25 14.7407 2.25 13.5V6C2.25 5.02354 2.87888 4.19879 3.75 3.8882V4.5C3.75 4.91455 4.08582 5.25 4.5 5.25C4.91418 5.25 5.25 4.91455 5.25 4.5V3.75H8.25V4.5C8.25 4.91455 8.58582 5.25 9 5.25C9.41418 5.25 9.75 4.91455 9.75 4.5V3.75H12.75V4.5C12.75 4.91455 13.0858 5.25 13.5 5.25C13.9142 5.25 14.25 4.91455 14.25 4.5V3.8882C15.1211 4.19879 15.75 5.02354 15.75 6V13.5Z" fill="white"/>
</g>
<defs>
<clipPath id="clip0_1_698">
<rect width="18" height="18" fill="white"/>
</clipPath>
</defs>
</svg>

<svg xmlns="http://www.w3.org/2000/svg" width="18" height="18" fill="#fff"><g clip-path="url(#calendar_svg__a)"><path   d="M14.25 2.326V1.5a.75.75 0 1 0-1.5 0v.75h-3V1.5a.75.75 0 1 0-1.5 0v.75h-3V1.5a.75.75 0 1 0-1.5 0v.826C2.04 2.674.75 4.189.75 6v7.5a3.754 3.754 0 0 0 3.75 3.75h9a3.754 3.754 0 0 0 3.75-3.75V6c0-1.81-1.29-3.326-3-3.674m1.5 11.174c0 1.24-1.01 2.25-2.25 2.25h-9c-1.24 0-2.25-1.01-2.25-2.25V6c0-.976.629-1.801 1.5-2.112V4.5a.75.75 0 1 0 1.5 0v-.75h3v.75a.75.75 0 1 0 1.5 0v-.75h3v.75a.75.75 0 1 0 1.5 0v-.612c.871.31 1.5 1.136 1.5 2.112z"></path></g><defs><clipPath id="calendar_svg__a"><path   d="M0 0h18v18H0z"></path></clipPath></defs></svg>
